src/assets/icons/copy.svg

<svg width="16" height="16" viewBox="0 0 16 16" fill="none" xmlns="http://www.w3.org/2000/svg">
<g clip-path="url(#clip0_8874_15279)">
<path fill-rule="evenodd" clip-rule="evenodd" d="M2.74804 0.0239004C2.25714 0.100329 1.79426 0.378155 1.50074 0.772504C1.26446 1.08995 1.15105 1.38128 1.11121 1.77312C1.08671 2.01406 1.08632 11.279 1.1108 11.436C1.13622 11.599 1.23061 11.7793 1.35611 11.9044C1.77957 12.3266 2.49827 12.188 2.74192 11.6371C2.7654 11.584 2.79258 11.4768 2.80234 11.399C2.81424 11.3041 2.82011 9.70557 2.82011 6.56052V1.86368L2.86632 1.80877C2.95749 1.70043 2.75885 1.70719 5.85088 1.70719C8.33936 1.70719 8.68963 1.70404 8.77852 1.68089C9.05621 1.60856 9.30424 1.36054 9.37656 1.08285C9.40903 0.958206 9.41019 0.753081 9.37909 0.636301C9.2989 0.335136 9.01966 0.0715184 8.7208 0.0148384C8.66027 0.00334852 7.64773 -0.00205444 5.76292 -0.000960162C3.44075 0.000373486 2.86879 0.00509254 2.74804 0.0239004ZM8.11196 2.75066C5.2519 2.76056 5.4794 2.75246 5.16254 2.85558C4.67133 3.01541 4.21406 3.43994 4.00875 3.92675C3.93436 4.10315 3.88616 4.27976 3.86324 4.45997C3.85027 4.562 3.84635 6.0523 3.85011 9.46115C3.85521 14.0816 3.85697 14.3232 3.88648 14.4452C3.98143 14.8379 4.13828 15.1294 4.40035 15.4C4.67523 15.684 4.99336 15.862 5.40191 15.9606C5.52328 15.9899 5.73109 15.9919 9.27462 15.9973C12.0347 16.0015 13.0618 15.9978 13.1814 15.9832C13.7086 15.919 14.1913 15.642 14.5009 15.226C14.7372 14.9086 14.8506 14.6173 14.8904 14.2254C14.9025 14.107 14.9083 12.765 14.9081 10.1732C14.9078 5.94873 14.913 6.17597 14.8122 5.96489C14.7741 5.88494 14.5439 5.64685 13.3033 4.4036C12.4981 3.59676 11.8055 2.91405 11.7642 2.88646C11.5955 2.77381 11.5341 2.76102 11.1127 2.75089C10.9011 2.74579 9.55076 2.74569 8.11196 2.75066ZM5.69935 4.48441C5.67017 4.49711 5.62785 4.53336 5.60531 4.56495L5.56435 4.6224L5.55995 9.34865L5.55556 14.0749L5.5909 14.1479C5.6166 14.201 5.64611 14.2305 5.69901 14.2561L5.77176 14.2914H9.37461C13.3158 14.2914 13.0436 14.2987 13.1353 14.1898L13.1815 14.1349V10.9474V7.7599L11.9291 7.7596C10.5636 7.75928 10.5319 7.75731 10.3565 7.66237C10.2425 7.6007 10.0874 7.45714 10.0181 7.34905C9.98806 7.30227 9.94892 7.21715 9.9311 7.15991C9.9005 7.06161 9.8987 6.98373 9.8987 5.7579V4.45997L7.82556 4.46064C6.12302 4.46119 5.74294 4.46544 5.69935 4.48441ZM11.6085 5.58429V6.05009H12.0616C12.3108 6.05009 12.5147 6.04426 12.5147 6.03715C12.5147 6.03003 12.3108 5.82041 12.0616 5.57135L11.6085 5.11849V5.58429Z" fill="currentColor"/>
</g>
<defs>
<clipPath id="clip0_8874_15279">
<rect width="16" height="16" fill="white" transform="translate(0 -0.000732422)"/>
</clipPath>
</defs>
</svg>

<svg xmlns="http://www.w3.org/2000/svg" width="16" height="16" fill="none">
  <g clip-path="url(#a)">
    <path fill="currentColor" fill-rule="evenodd" d="M2.748.024c-.49.076-.954.354-1.247.749a1.87 1.87 0 0 0-.39 1c-.024.241-.025 9.506 0 9.663a.857.857 0 0 0 1.631.201c.023-.053.05-.16.06-.238.012-.095.018-1.693.018-4.838V1.864l.046-.055c.091-.109-.107-.102 2.985-.102 2.488 0 2.839-.003 2.928-.026a.875.875 0 0 0 .598-.598 1.07 1.07 0 0 0 .002-.447.895.895 0 0 0-.658-.621C8.66.003 7.648-.002 5.763-.001 3.44 0 2.869.005 2.748.024ZM8.112 2.75c-2.86.01-2.633.001-2.95.105-.49.16-.948.584-1.153 1.07a2.02 2.02 0 0 0-.146.534c-.013.102-.017 1.592-.013 5.001.005 4.62.007 4.862.036 4.984.095.393.252.684.514.955a1.97 1.97 0 0 0 1.002.56c.121.03.33.032 3.873.037 2.76.005 3.787 0 3.906-.014a1.943 1.943 0 0 0 1.32-.757c.236-.317.35-.609.39-1 .011-.119.017-1.461.017-4.053 0-4.224.005-3.997-.096-4.208-.038-.08-.268-.318-1.509-1.561a73.726 73.726 0 0 0-1.539-1.518c-.168-.112-.23-.125-.651-.135-.212-.005-1.562-.005-3.001 0ZM5.699 4.484a.277.277 0 0 0-.094.08l-.04.058L5.56 9.35l-.004 4.726.035.073a.209.209 0 0 0 .108.108l.073.035h3.603c3.94 0 3.669.008 3.76-.101l.046-.055V7.76H11.93c-1.365 0-1.397-.003-1.572-.098a1.112 1.112 0 0 1-.339-.313.936.936 0 0 1-.087-.19c-.03-.097-.032-.175-.032-1.401V4.46H7.826c-1.703.001-2.083.005-2.127.024Zm5.91 1.1v.466h.453c.249 0 .453-.006.453-.013 0-.007-.204-.217-.453-.466l-.454-.453v.466Z" clip-rule="evenodd"/>
  </g>
  <defs>
    <clipPath id="a">
      <path fill="#fff" d="M0 0h16v16H0z"/>
    </clipPath>
  </defs>
</svg>
